X:472
T:Speed the Plough
K:D
M:4/4
L:1/8
P:A
"D"DEFG ABAF|ABAF ABAF|"G"G2BG "D"F2AF|"A"G2E2 E4|
"D"DEFG ABAF|ABAF ABAF|"G"G2BG "D"F2AF|"A"G2E2 "D"D4:|
P:B
|:"D"d2d2 d4|d2cB a4|"G"G2BG "D"F2AF|"A"G2E2 E4|
"D"d2dc d4|d2cB a4|"G"G2BG "D"F2AF|"A"G2E2 "D"D4:|



